src/assets/svg/icons/social/twitter.svg

<svg width="24" height="24" viewBox="0 0 24 24" fill="none" xmlns="http://www.w3.org/2000/svg">
<g id="icons/social/twitter">
<path id="icon" fill-rule="evenodd" clip-rule="evenodd" d="M21.1195 4.50827L22.5343 4.67349L21.8983 5.948C21.5882 6.56953 21.2778 7.19105 20.967 7.81258C20.9302 7.94422 20.8654 8.05962 20.7697 8.20987C20.7296 8.27265 20.5929 8.47236 20.5865 8.48194C20.5504 8.53608 20.5237 8.57878 20.5045 8.61299V11.0015C20.5045 17.1135 14.5895 20.9974 9.00354 20.9974C7.86051 20.9974 6.99207 20.9427 5.99765 20.7257C4.36115 20.3685 3.14327 19.6587 2.58597 18.418L2.01221 17.1407L3.40659 17.0124C4.66801 16.8964 5.76169 16.6561 6.60159 16.3343C4.29577 15.9635 3.0036 14.9508 3.0036 13.0489V12.0489H4.0036C4.22331 12.0489 4.42143 12.0311 4.59854 11.9983C2.868 10.9636 2.00122 9.30379 2.00122 7.00152C2.00103 6.9034 2.00103 6.90339 2.00044 6.79847C1.99394 5.63803 2.05627 5.01797 2.37395 4.22659C2.57754 3.71941 2.87183 3.24988 3.2679 2.81967L4.02251 2L4.75617 2.83847C7.17394 5.60161 9.56395 7.27795 12.0042 7.48072C12.0146 4.93105 13.9415 3.00152 16.5043 3.00152C17.6991 3.00152 18.7828 3.45501 19.6345 4.27273C20.1006 4.36851 20.5957 4.44709 21.1195 4.50827ZM18.9086 6.16202L18.6021 6.0926L18.3904 5.86028C17.8785 5.29855 17.2359 5.00152 16.5043 5.00152C15.0414 5.00152 14.0041 6.04391 14.0041 7.50152C14.0041 7.73974 13.998 7.88942 13.9683 8.08615C13.8499 8.87116 13.4096 9.50152 12.5041 9.50152C9.50607 9.50152 6.80136 7.89542 4.16389 5.15228C4.02792 5.56561 3.99595 5.99047 4.00041 6.78727C4.00101 6.89384 4.00101 6.89384 4.00122 7.00152C4.00122 9.04953 4.83093 10.1698 6.79547 10.7942L7.49255 11.0158V11.7472C7.49255 12.6342 6.65222 13.4691 5.42268 13.8431C5.98631 14.2708 7.139 14.5015 9.00389 14.5015H10.0039V15.5015C10.0039 16.9343 8.35762 18.0561 5.87075 18.6419C6.68178 18.8903 7.76166 18.9974 9.00354 18.9974C13.618 18.9974 18.5045 15.7888 18.5045 11.0015V8.50152C18.5045 8.20774 18.5897 7.95273 18.7311 7.68759C18.7865 7.58393 18.8474 7.48509 18.9225 7.37237C18.9367 7.35115 18.9892 7.27426 19.0309 7.21279L19.1101 7.05429C19.2386 6.79745 19.3669 6.54061 19.4952 6.28377C19.2958 6.24599 19.1003 6.20541 18.9086 6.16202Z" fill="#101010"/>
</g>
</svg>

<svg xmlns="http://www.w3.org/2000/svg" fill="none" viewBox="0 0 24 24">
  <path fill="currentColor" fill-rule="evenodd" d="m21.12 4.508 1.414.165-.636 1.275-.931 1.865a1.475 1.475 0 0 1-.197.397c-.04.063-.177.262-.183.272a2.089 2.089 0 0 0-.082.131v2.389c0 6.111-5.915 9.995-11.501 9.995-1.143 0-2.012-.054-3.006-.271-1.637-.357-2.855-1.067-3.412-2.308l-.574-1.277 1.395-.129c1.261-.116 2.355-.356 3.195-.678-2.306-.37-3.598-1.383-3.598-3.285v-1h1c.22 0 .417-.018.595-.05C2.868 10.963 2 9.303 2 7.001v-.204c-.007-1.16.055-1.78.373-2.571.204-.508.498-.977.894-1.407L4.023 2l.733.838c2.418 2.764 4.808 4.44 7.248 4.643.01-2.55 1.938-4.48 4.5-4.48 1.195 0 2.279.454 3.13 1.272.467.096.962.174 1.485.235Zm-2.211 1.654-.307-.07-.212-.232c-.512-.561-1.154-.858-1.886-.858-1.463 0-2.5 1.042-2.5 2.5 0 .238-.006.387-.036.584-.118.785-.558 1.416-1.464 1.416-2.998 0-5.703-1.607-8.34-4.35-.136.414-.168.838-.164 1.635l.001.215c0 2.048.83 3.168 2.794 3.792l.698.222v.731c0 .887-.84 1.722-2.07 2.096.563.428 1.716.659 3.58.659h1v1c0 1.432-1.645 2.554-4.132 3.14.81.248 1.89.355 3.133.355 4.614 0 9.5-3.208 9.5-7.995v-2.5c0-.294.086-.55.227-.814.055-.104.116-.203.191-.316.015-.02.067-.098.109-.16l.08-.158.384-.77c-.2-.038-.395-.079-.586-.122Z" clip-rule="evenodd"/>
</svg>
